priv/static/svgs/icons_new/files-stickers.svg

<svg width="32" height="32" viewBox="0 0 32 32" fill="none" xmlns="http://www.w3.org/2000/svg">
<path d="M19.2884 13.0769H22.5C24.1568 13.0769 25.5 14.4201 25.5 16.0769V22.5C25.5 24.1568 24.1568 25.5 22.5 25.5H16.0769C14.4201 25.5 13.0769 24.1568 13.0769 22.5V19.2884M9.5 18.9231H15.9231C17.5799 18.9231 18.9231 17.5799 18.9231 15.9231V9.5C18.9231 7.84315 17.5799 6.5 15.9231 6.5H9.5C7.84315 6.5 6.5 7.84315 6.5 9.5V15.9231C6.5 17.5799 7.84315 18.9231 9.5 18.9231Z" stroke="black"/>
</svg>

<svg width="32" height="32" viewBox="0 0 32 32" fill="none" xmlns="http://www.w3.org/2000/svg">
  <symbol id="item" viewBox="0 0 32 32" stroke-width="1" fill="none">
    <path d="M19.288 13.077H22.5a3 3 0 0 1 3 3V22.5a3 3 0 0 1-3 3h-6.423a3 3 0 0 1-3-3v-3.212M9.5 18.923h6.423a3 3 0 0 0 3-3V9.5a3 3 0 0 0-3-3H9.5a3 3 0 0 0-3 3v6.423a3 3 0 0 0 3 3Z" stroke="currentColor"/>
  </symbol>
</svg>
